!!!OTL: Des alten Dessauer Lied.
!!!OTL-incipit: DER KOENIG FASSTE DEN BESCHLUSS
!!!ARE: Europa, Mitteleuropa, Deutschland
!!!SCT: Z1131
!!!TXL: @@DE
!!!YEM: Copyright 1995, estate of Helmut Schaffrath.
**kern	**text
*ICvox	*
*M4/4	*
*met(c)	*
*k[b-e-]	*
*B-:	*
!LO:TX:a:t=Allgemein bekannt.	!
{4f	Der
=1	=1
8.b-/	Kö-
16f	-nig
8.d	faß-
16f	-te
8.b-/	den
16f	Be-
8.d	-ſchluß,
16f	ſein
=2	=2
8.b-/	Rath
16a	hat's
8.b-/	lang'
16cc	be-
4.dd}	-dacht,
{8b-	ver-
=3	=3
8.dd	-gli-
16cc	-chen
8.dd	iſt's
16ee-	mit
4ff	al-
8.ee-L	-len
16ddJ	.
=4	=4
2cc	Rech-
4cc}	-ten;
{4f	man
=5	=5
8.b-/	hat
16f	es
8.d	an-
16f	-ver-
8.b-/	-trau-
16f	-et
8.d	uns,
16f	hat
=6	=6
8.b-/	uns
16a	da-
8.b-/	-mit
16cc	be-
4.dd}	-dacht
{8b-	und
=7	=7
8.dd	hat
16cc	ſich
8.dd	nicht
16ee-	vertraut
4ff	.
8.ee-L	den
16ddJ	.
=8	=8
2cc	Schlechten!
4.cc}	.
{8cc	die
=9	=9
8.cc	Sa-
16dd	-che
8.cc	iſt
16b-/	ge-
8.a	-nehm
16g	und
8.f	gut,
16g	drum,
=10	=10
8.a	Brüder,
16b-/	.
8.cc	dran
16dd	be-
4ee-}	-hend',
{4cc	wir
=11	=11
8.dd	füh-
16cc	-ren
8.dd	ſie
16ee-	wohl
4ff	an
8ggL	ein
8ee-J	.
=12	=12
4dd	fröh-
4cc	-lich
4b-}	End'!
==	==
!!!AGN: Vaterland und Wehr, Soldaten -, Kriegs - Lied
!!!ONB: ESAC (Essen Associative Code) Database: ZUCCAL
!!!AMT: simple quadruple
!!!AIN: vox
!!!EED: Helmut Schaffrath
!!!EEV: 1.0
!!!GTL: IV. Vaterland und Wehr.
!!!URL-scan: https://www.digitale-sammlungen.de/de/view/bsb11160573?page=291
!!!ENC: Anna Maria Matuszewska
!!!EEV: 2025/02/04
*-	*-
